X: 2678
T:Little Gipsey,The. HSJJ.125
M:4/4
L:1/8
Q:200
S:HSJ Jackson,Wyresdale,Lancs.1823
R:Reel
O:England
A:Lancashire
N:Change sides,back again,hands across,back again,down the middle,up
N:again..Then illegible on my phototcopy.
H:1823
Z:Chris Partington.
K:Bb
g|fBdB fBgB|fBdB gccg|fBdB fBdB|cedc BGG:|!
|:A|BcdB ABcA|BGGB A=FD2|BcdB Ag^fg|ecAd BGG:|]
